X: 48
T:City of Savannah
% Nottingham Music Database
S:Trad via Lesley Dolman
M:4/4
L:1/8
R:Hornpipe
K:D
P:A
FG|(3"D"ABAFA dfaf|"G"gaba gfed|"Em"cded cdBc|"A7"ABGA FFG^G|
(3"D"ABAFA dfaf|"G"gaba gfed|"A7"cbag fABc|"D"d2f2 d2:|
P:B
e2|(3"A"efece aec'e|"E7"be^ge "A"aebe|(3"A"efece aec'e|"E7"be^ge "A"a4|
(3"A7"abaga eac2|(3"D"abafa daA2|(3"G"gagGg (3"D"fgfAf|"A7"eABc "D"d2:|<end>
<start>
